X: 73
T:Missa L'homme arm\'e super voces musicales / Credo
N: Derived from Jos0603c-Missa_Lhomme_arme_super_voces_musicales-Credo.krn
C: Josquin des Prez
%%abc-version 2.0
%%abcx-abcm2ps-target-version 5.9.1 (29 Sep 2008)
%%abc-creator hum2abc beta
%%abcx-conversion-date 2019/02/12 16:15:41
%%abc-edited-by Jesse Rodin
%%abc-edited-by Jesse Rodin; Victoria Chang 2011/05/11
%%abcx-initial-encoding-date 2011/05/11/
%%humdrum-veritas 1660064657
%%humdrum-veritas-data 3011519214
%%linebreak <none>
%%barnumbers 0
L: 1/4
M: 3/1
Q: 1/2=120
%%staves [1 2 3 4]
V: 1 clef=treble
V: 2 clef=treble-8
V: 3 clef=treble-8
V: 4 clef=bass
K: C
[V:1] z12 | 
[V:2] e4f4e4 | 
[V:3] z12 :
[V:4] z12 | 
[V:1] E4F4E4 | 
[V:2] z2e4d2c3d/e/ | 
[V:3] z12 :
[V:4] z12 | 
[V:1] D2C2D4E4 | 
[V:2] f2e3dd4^c2 | 
[V:3] z12 | 
[V:4] z12 | 
[V:1] D4B,2C2D2D2 | 
[V:2] d2G3FE2DEFG | 
[V:3] z12 :
[V:4] z12 | 
[V:1] C2E3DD4^C2 | 
[V:2] A3Bc2d2e4 | 
[V:3] z12 :
[V:4] A,,8A,,4 | 
[V:1] D4B,2C2D2D2 | 
[V:2] f4d2e2f3e/d/ | 
[V:3] z12 | 
[V:4] D,4D,2C,2B,,4 | 
[V:1] E3DE2C2B,4 | 
[V:2] c3B/A/G2A4^G2 | 
[V:3] E8E4 :
[V:4] A,,4E,4E,4 | 
[V:1] A,4E4F4 | 
[V:2] A2c3BAGFED2 | 
[V:3] A12 :
[V:4] A,,8D,4 | 
[V:1] E4E2D2D2^C2 | 
[V:2] C4z4G4 | 
[V:3] A4G8 | 
[V:4] A,,3B,,C,2D,2E,4 | 
[V:1] D4z4z4 | 
[V:2] A3Bc2d4^c2 | 
[V:3] F8E4 :
[V:4] D,2F,3E,D,B,,C,D,A,,2 | 
[V:1] D2A3Bc4BA | 
[V:2] d4A3Bc2d2 | 
[V:3] F12 :
[V:4] D,4z4A,4 | 
[V:1] G3EGABc2BA2 | 
[V:2] e12- | 
[V:3] E8z4 | 
[V:4] B,2C3B,G,2A,4 | 
[V:1] G4z2G3FE2 | 
[V:2] e4z2E2G3A | 
[V:3] B4B4E4 :
[V:4] E,8z2G,2- | 
[V:1] D2E2z2G3FED | 
[V:2] B2c2d2G3AB2 | 
[V:3] z4B8 :
[V:4] G,F,E,2D,2E,2z2G,2- | 
[V:1] EDG3FE2D2A2- | 
[V:2] E3FGABcdBe2- | 
[V:3] B4B6A2 | 
[V:4] G,F,E,D,E,D,G,4A,2 | 
[V:1] A2G2A3GF2E2 | 
[V:2] e4c8 | 
[V:3] B4A6G2 :
[V:4] E,4F,3E,F,2C,2 | 
[V:1] FDE2A,2E4D2 | 
[V:2] A4z2c2B2A2 | 
[V:3] F2E2F2E2F4 :
[V:4] D,2C,2D,2C,2D,4 | 
[V:1] E3FGABc2A2^G | 
[V:2] c3B/A/Bcde2cB2 | 
[V:3] E12 | 
[V:4] A,,4z4z4 | 
[V:1] A4z2F2E2D2 | 
[V:2] A2d3Ad2c2d2- | 
[V:3] [M:6/1]z12 :
[V:4] z12 | 
[V:1] F3E/D/EFGA2FE2 | 
[V:2] dAd2cdef2d2^c | 
[V:3] z12 | 
[V:4] z12 | 
[V:1] D4z2A4F2 | 
[V:2] d6cBA2d2 | 
[V:3] z12 :
[V:4] D,8D,4 | 
[V:1] G2C4G4E2 | 
[V:2] G2A3GE2c4 | 
[V:3] e8e4 | 
[V:4] C,8C,4 | 
[V:1] F2D4F2ED2C/B,/ | 
[V:2] A2_B3AF2G2D2 | 
[V:3] d8d4 :
[V:4] D,4_B,,8 | 
[V:1] C2A,2E8 | 
[V:2] z2A2A2A2E3F | 
[V:3] e4c8 | 
[V:4] A,,12 | 
[V:1] z12 | 
[V:2] GAG4FED2G2 | 
[V:3] B12 :
[V:4] z12 | 
[V:1] z12 | 
[V:2] C2c4BAc2B2 | 
[V:3] e8e4 | 
[V:4] z2A,2A,2A,2E,3F, | 
[V:1] z12 | 
[V:2] z2B4AGA2B2 | 
[V:3] d8d4 :
[V:4] G,A,G,4F,E,D,4 | 
[V:1] z2A2A2A2E3F | 
[V:2] c6BAc4 | 
[V:3] e4c8 | 
[V:4] A,12 | 
[V:1] GAG4FED2G2 | 
[V:2] d6cBd2G2 | 
[V:3] B12 :
[V:4] G,12 | 
[V:1] C4z4G4 | 
[V:2] z2c4BAB2c2 | 
[V:3] e12 | 
[V:4] A,8G,3F, | 
[V:1] A4A4A4 | 
[V:2] d8A3B | 
[V:3] f12 :
[V:4] D,8F,4 | 
[V:1] G2c2B2A2c3B | 
[V:2] c4F3GA4 | 
[V:3] e4d4c4 | 
[V:4] C,4D,4A,,4 | 
[V:1] G4z2E2D2G2 | 
[V:2] z2E3FGEGABc | 
[V:3] B12 :
[V:4] E,8z2E,2 | 
[V:1] F2D2z2F2E2A2 | 
[V:2] d2B2A2d2c2A2 | 
[V:3] z12 | 
[V:4] D,2G,2F,2D,2z2F,2 | 
[V:1] GFE2z2G2A2G2 | 
[V:2] z2c2B2e2dcB2 | 
[V:3] [M:9/1]z12 :
[V:4] E,2A,2G,F,E,2z2G,2 | 
[V:1] E2z2G3FDEF2- | 
[V:2] z2d2e2d2B2d2- | 
[V:3] z12 :
[V:4] A,2G,2E,2G,3F,D,2 | 
[V:1] FEC2D2E2DCB,2 | 
[V:2] dcA3Bc2BA2^G | 
[V:3] z12 | 
[V:4] E,2F,3E,C,2D,2E,2 | 
[V:1] A,2C2B,2A,2C3B, | 
[V:2] A4G2A3Ec2 | 
[V:3] E12 :
[V:4] A,,4z2A,,2A,,4 | 
[V:1] G,2A,4c2B2A2 | 
[V:2] B2A2c3BG2A2- | 
[V:3] E12 :
[V:4] z2A,,2A,,4z2A,,2 | 
[V:1] c3BG2A4^G2 | 
[V:2] A2c2B2A2B4 | 
[V:3] E12 | 
[V:4] A,,4z2A,,2E,4 | 
[V:1] A12 | 
[V:2] A4z2f2e2f2- | 
[V:3] A12 :
[V:4] A,,2F,3E,D,2C,2D,2- | 
[V:1] z12 | 
[V:2] fed2c2d4^c2 | 
[V:3] A4G8 :
[V:4] D,2F,2E,2D,2E,4 | 
[V:1] A3AA2A2A4 | 
[V:2] d8A4 | 
[V:3] F12 | 
[V:4] D,12 | 
[V:1] G4G2G2G2G2 | 
[V:2] e3ee2e2e4 | 
[V:3] E12 :
[V:4] z12 | 
[V:1] A2c4B2A4 | 
[V:2] d2c2A8 | 
[V:3] z12 :
[V:4] F,3F,F,2F,2F,4 | 
[V:1] G12 | 
[V:2] e4d2e2z2E2- | 
[V:3] B12 | 
[V:4] E,4z2E,3D,E,F, | 
[V:1] E3DEFG3FD2 | 
[V:2] EDEFG2E3FG2 | 
[V:3] B12 :
[V:4] G,3F,E,D,E,3D,B,,2 | 
[V:1] C3B,/A,/G,2E3D/C/B,2 | 
[V:2] A4B2c3BG2 | 
[V:3] E12 :
[V:4] A,,4z4z4 | 
[V:1] A,A2G/F/EDG4^F2 | 
[V:2] A2F2G2_B2A4 | 
[V:3] z12 | 
[V:4] z12 | 
[V:1] G4E2F2G3F | 
[V:2] G4z4z4 | 
[V:3] B12 :
[V:4] z2E,4D,2E,2F,2 | 
[V:1] E2D2E2F2G3F | 
[V:2] z12 | 
[V:3] B12 :
[V:4] G,3F,E,2D,2E,2F,2 | 
[V:1] E2D2G2F2EDB,2 | 
[V:2] E2G3FD2E4 | 
[V:3] B12 | 
[V:4] G,4E,2F,2G,4 | 
[V:1] C4z2A,3B,CA, | 
[V:2] z2A3BcAcde2- | 
[V:3] A12 :
[V:4] A,4z4z2A,,2- | 
[V:1] CDEFG3FD3E | 
[V:2] e2dcB3cded2- | 
[V:3] A4G8 :
[V:4] A,,B,,C,D,E,F,G,4F,E, | 
[V:1] FGF4EDC2A,2 | 
[V:2] d2cBA3Bcdc2- | 
[V:3] F12 | 
[V:4] D,6C,B,,A,,3B,, | 
[V:1] E3FGAG4FE | 
[V:2] c2BAG3A_B2AG | 
[V:3] E12 :
[V:4] C,D,C,4B,,A,,G,,2A,,2 | 
[V:1] D2E2F2ED2^C/B,/C2 | 
[V:2] F2G2A2GFE4 | 
[V:3] z12 :
[V:4] _B,,2A,,G,,F,,2G,,2A,,4 | 
[V:1] D12 ||  
[V:2] D12 ||  
[V:3] z12 ||  
[V:4] D,12 ||  
[V:1]  [K:C] [K:clef=treble][M:2/1]F8 | 
[V:2]  [K:C] [K:clef=treble-8][M:2/1]A6B2 | 
[V:3]  [K:C] [K:clef=treble-8][M:9/1]z8 :
[V:4]  [K:C] [K:clef=bass][M:2/1]D,8 | 
[V:1] E4E4 | 
[V:2] c4c4 | 
[V:3] x4z4 :
[V:4] C,4C,4 | 
[V:1] F4D4 | 
[V:2] A4d4 | 
[V:3] x8 :
[V:4] D,4D,4 | 
[V:1] E8 | 
[V:2] c8 | 
[V:3] E8- :
[V:4] A,,8 | 
[V:1] z4 :
[V:2] z4 :
[V:3] E4 | 
[V:4] z4 :
[V:1] x4 [I:setbarnb 64]| 
[V:2] x4 | 
[V:3] F4- :
[V:4] x4 | 
[V:1] F8 | 
[V:2] A6B2 | 
[V:3] F8 :
[V:4] D,8 | 
[V:1] E4E4 | 
[V:2] c4c4 | 
[V:3] G4A4- :
[V:4] C,4C,4 | 
[V:1] F4D4 | 
[V:2] A4d4 | 
[V:3] A4A4- :
[V:4] D,4D,4 | 
[V:1] E4z2E2 | 
[V:2] c2A2c3B | 
[V:3] A8 | 
[V:4] A,,8 | 
[V:1] G4G4 | 
[V:2] G8 | 
[V:3] B8- :
[V:4] z4E,4 | 
[V:1] E4z2G2- | 
[V:2] z4E4 | 
[V:3] B4B4- :
[V:4] G,4G,4 | 
[V:1] GFE4D2 | 
[V:2] G4G4 | 
[V:3] B8 :
[V:4] E,4z2G,2- | 
[V:1] E4z4 | 
[V:2] E2G3EF2 | 
[V:3] B8- :
[V:4] G,E,E,4D,2 | 
[V:1] z2G2- :
[V:2] GEe2- :
[V:3] B4 | 
[V:4] E,4 :
[V:1] GFD2 [I:setbarnb 73]| 
[V:2] edB2 | 
[V:3] z4 :
[V:4] z2G,2- | 
[V:1] E2F2G4- | 
[V:2] c2d2B2e2- | 
[V:3] x8 :
[V:4] G,F,D,2E,4 | 
[V:1] G2E2E4 | 
[V:2] edB2c4 | 
[V:3] E8- :
[V:4] z4E,4 | 
[V:1] z4z2G2- | 
[V:2] B4E4 | 
[V:3] E4B4- :
[V:4] G,6E,2 | 
[V:1] GFE2D2E2 | 
[V:2] G6E2 | 
[V:3] B8 | 
[V:4] E,4z2G,2- | 
[V:1] z2G3EF2 | 
[V:2] E4z4 | 
[V:3] B8- :
[V:4] G,E,E,4D,2 | 
[V:1] G2EFGAB2- | 
[V:2] z2e3dB2 | 
[V:3] B4z4 :
[V:4] E,4z2G,2- | 
[V:1] BAA4^G2 | 
[V:2] c2d2B4 | 
[V:3] x8 :
[V:4] G,F,D,2E,4 | 
[V:1] A4c4 | 
[V:2] A8 | 
[V:3] E8- :
[V:4] A,,8 | 
[V:1] B4 :
[V:2] G4 :
[V:3] E4 | 
[V:4] z4 :
[V:1] A2c2- [I:setbarnb 82]| 
[V:2] A4 | 
[V:3] F4- :
[V:4] A,4 | 
[V:1] cBAGA2c2 | 
[V:2] c6BA | 
[V:3] F8 :
[V:4] A,4A,4 | 
[V:1] B4A2c2- | 
[V:2] e8 | 
[V:3] G4A4- :
[V:4] E,4C4- | 
[V:1] cBAGA2c2- | 
[V:2] e6e2 | 
[V:3] A4A4- :
[V:4] C4C4 | 
[V:1] cBAGA4 | 
[V:2] e4e4 | 
[V:3] A8 | 
[V:4] C4C4 | 
[V:1] G8 | 
[V:2] e8 | 
[V:3] E8- :
[V:4] B,2C4B,A, | 
[V:1] z2G3FED | 
[V:2] e8 | 
[V:3] E4E4- :
[V:4] G,8- | 
[V:1] E2C2B,4 | 
[V:2] z2g3fed | 
[V:3] E8 :
[V:4] G,8 | 
[V:1] z2G3FED | 
[V:2] e2c2B4 | 
[V:3] E8- :
[V:4] z8 | 
[V:1] E2C2 :
[V:2] z2g2- :
[V:3] E4 | 
[V:4] z4 :
[V:1] B,2C2- [I:setbarnb 91]| 
[V:2] gfed | 
[V:3] z4 :
[V:4] x4 | 
[V:1] CA,A4^G2 | 
[V:2] e2c2B4 | 
[V:3] x8 :
[V:4] z8 | 
[V:1] A2c3BAG | 
[V:2] A4z2c2- | 
[V:3] z8 :
[V:4] z8 | 
[V:1] A2F2E2A2 | 
[V:2] cBAGA2F2 | 
[V:3] x4z4 :
[V:4] z8 | 
[V:1] G2E4G2- | 
[V:2] E2A2G2E2 | 
[V:3] x8 | 
[V:4] z8 | 
[V:1] GEE4D2 | 
[V:2] G2A2F4 | 
[V:3] [M:6/1]z8 :
[V:4] z4A,4 | 
[V:1] E8 | 
[V:2] E8 | 
[V:3] x4B4- :
[V:4] G,3F,E,D,E,2- | 
[V:1] z8 | 
[V:2] z4z2e2- | 
[V:3] B8 | 
[V:4] E,2D,C,B,,2E,2 | 
[V:1] z8 | 
[V:2] e2f3dd2- | 
[V:3] c4d4 :
[V:4] A,,2A,2F,2G,2 | 
[V:1] z4A4 | 
[V:2] d2^c2d4 | 
[V:3] e4f4- :
[V:4] E,4D,4- | 
[V:1] A4A4 | 
[V:2] A4d4 | 
[V:3] f8 | 
[V:4] D,8 | 
[V:1] A8 | 
[V:2] c6BA | 
[V:3] e8- :
[V:4] A,8 | 
[V:1] G8- | 
[V:2] c2B2e4 | 
[V:3] e4B4- :
[V:4] E,8 | 
[V:1] G8- | 
[V:2] d8 | 
[V:3] B8 | 
[V:4] G,8 | 
[V:1] G8 | 
[V:2] c8 | 
[V:3] c4e4 :
[V:4] C,8 | 
[V:1] z4G4 | 
[V:2] B8 | 
[V:3] d4d4- :
[V:4] G,8 | 
[V:1] A4G4 | 
[V:2] z4B4 | 
[V:3] d4e4 | 
[V:4] F,4E,4 | 
[V:1] A8 | 
[V:2] c6BA | 
[V:3] e8- :
[V:4] A,8 | 
[V:1] G8 | 
[V:2] c2B2e4- | 
[V:3] e4B4- :
[V:4] E,8- | 
[V:1] z4G4 | 
[V:2] e8 | 
[V:3] B8 | 
[V:4] E,8 | 
[V:1] A4G2c2 | 
[V:2] z8 | 
[V:3] c4e4 :
[V:4] z8 | 
[V:1] B2A3GFE | 
[V:2] z8 | 
[V:3] d4d4- :
[V:4] z8 | 
[V:1] F4E4 | 
[V:2] z4A4 | 
[V:3] d4e4 | 
[V:4] z8 | 
[V:1] z2E2G2E2 | 
[V:2] c4B2c2- | 
[V:3] e8- :
[V:4] z2A,2G,2A,2 | 
[V:1] G2A2B2c2- | 
[V:2] cBc2B2A2 | 
[V:3] e4z4 :
[V:4] E,2A,2G,2A,2- | 
[V:1] c2BAG4 | 
[V:2] e8 | 
[V:3] x8 | 
[V:4] A,2G,F,E,4 | 
[V:1] z2E2G2E2 | 
[V:2] z2c2B2e2- | 
[V:3] z8 :
[V:4] z2A,2G,2A,2 | 
[V:1] G2A2B2c2- | 
[V:2] edcBd2c2 | 
[V:3] x4z4 :
[V:4] E,2A,2G,2A,2- | 
[V:1] cBA4^G2 | 
[V:2] A4B4 | 
[V:3] x8 | 
[V:4] A,2G,F,E,4 | 
[V:1] A8 | 
[V:2] A8 | 
[V:3] [M:9/1]E8 :
[V:4] A,,8 | 
[V:1] z8 | 
[V:2] z2A2A2A2 | 
[V:3] F4E2F2 :
[V:4] z2D,2C,2D,2 | 
[V:1] z2A2B2c2- | 
[V:2] c4B2A2- | 
[V:3] E2F2G2A2- :
[V:4] A,,4z4 | 
[V:1] cBA2G4 | 
[V:2] AGF2E4 | 
[V:3] A4B4 :
[V:4] z4z2E,2 | 
[V:1] z4 :
[V:2] z2E2 :
[V:3] A2B2- | 
[V:4] F,2G,2 :
[V:1] z2E2 [I:setbarnb 124]| 
[V:2] G2G2 | 
[V:3] B4 :
[V:4] E,4 | 
[V:1] G2G2E4 | 
[V:2] E4z2E2 | 
[V:3] B4B4- :
[V:4] z2E,2G,2G,2 | 
[V:1] z2E2G2G2 | 
[V:2] G2G2E4 | 
[V:3] B4z4 :
[V:4] E,4z2G,2- | 
[V:1] E2G2F2G2- | 
[V:2] z8 | 
[V:3] E4B4 :
[V:4] G,F,E,2D,2E,2- | 
[V:1] GEE4D2 | 
[V:2] z8 | 
[V:3] B4z4 | 
[V:4] E,2G,2F,4 | 
[V:1] E2G3ABc | 
[V:2] e4e4 | 
[V:3] E8- :
[V:4] z8 | 
[V:1] B2c3BA2- | 
[V:2] e4c4 | 
[V:3] E4F4- :
[V:4] z8 | 
[V:1] A2GFG4 | 
[V:2] d4e4 | 
[V:3] F4E4 :
[V:4] z8 | 
[V:1] z4A4 | 
[V:2] z4A4 | 
[V:3] F8- :
[V:4] z4D,4 | 
[V:1] A4 :
[V:2] d4 :
[V:3] F4 | 
[V:4] D,4 :
[V:1] B4 [I:setbarnb 133]| 
[V:2] d4 | 
[V:3] G4 :
[V:4] B,,4 | 
[V:1] E2F2E2A2- | 
[V:2] c2d2e2f2- | 
[V:3] A8 :
[V:4] A,,2D,2C,2F,2- | 
[V:1] A2G2F4 | 
[V:2] f2e2d4 | 
[V:3] A8 :
[V:4] F,E,C,2D,4 | 
[V:1] E8- | 
[V:2] c8- | 
[V:3] E4E4- :
[V:4] z4A,,4 | 
[V:1] E8 ||  
[V:2] c8 ||  
[V:3] E8 ||  
[V:4] A,,8 ||  
[V:1]  [K:C] [K:clef=treble][M:2/1]D4D2G2- | 
[V:2]  [K:C] [K:clef=treble-8][M:2/1]z8 | 
[V:3]  [K:C] [K:clef=treble-8][M:9/2]z6z2 :
[V:4]  [K:C] [K:clef=bass][M:2/1]z8 | 
[V:1] GFEDF2E2- | 
[V:2] z4A4 | 
[V:3] x4z4 :
[V:4] z8 | 
[V:1] E2 :
[V:2] A2 :
[V:3] x2 | 
[V:4] z2 :
[V:1] D2F2G2 [I:setbarnb 140]| 
[V:2] d2-dcBA | 
[V:3] z6 :
[V:4] x6 | 
[V:1] A2B2G2c2- | 
[V:2] c2d2B2e2- | 
[V:3] z6z2 :
[V:4] z8 | 
[V:1] cBA2- :
[V:2] edc2 :
[V:3] x4 | 
[V:4] z4 :
[V:1] A2^G2 [I:setbarnb 142]| 
[V:2] B4 | 
[V:3] E4 :
[V:4] x4 | 
[V:1] A8 | 
[V:2] ABcde2f2- | 
[V:3] E2A6 :
[V:4] A,,4A,,2D,2- | 
[V:1] z6 :
[V:2] f2d2e2 :
[V:3] A2G4 | 
[V:4] D,2B,,2C,2 :
[V:1] x2 [I:setbarnb 144]| 
[V:2] f2 | 
[V:3] F2- :
[V:4] D,2- | 
[V:1] z4A4 | 
[V:2] d2e2z2A2 | 
[V:3] F2E2F4- :
[V:4] D,B,,C,2D,4 | 
[V:1] A2c4BA | 
[V:2] c3de4- | 
[V:3] F2E4z2 | 
[V:4] z2A,,2C,3D, | 
[V:1] G6FE | 
[V:2] e2dcB4- | 
[V:3] B2B2E2z2 :
[V:4] E,3F,G,4- | 
[V:1] D2E2F2EF | 
[V:2] B2c2d4 | 
[V:3] B4B2B2- :
[V:4] G,2F,E,D,4 | 
[V:1] GF :
[V:2] G2- :
[V:3] BA | 
[V:4] E,2- :
[V:1] EDE4 [I:setbarnb 149]| 
[V:2] G2z2c2 | 
[V:3] B2A3G :
[V:4] E,2A,,4 | 
[V:1] D2A3Bc2- | 
[V:2] d2A2c3d | 
[V:3] FEFEF2E2- :
[V:4] D,4z2A,,2 | 
[V:1] c2BA :
[V:2] e4- :
[V:3] E4 | 
[V:4] C,3D, :
[V:1] G4- [I:setbarnb 151]| 
[V:2] e2dc | 
[V:3] [M:6/2]z4 :
[V:4] E,3F, | 
[V:1] G2FED3E | 
[V:2] B4z2d2- | 
[V:3] x2z6 | 
[V:4] G,6F,E, | 
[V:1] FGA4^G2 | 
[V:2] dcA2B4 | 
[V:3] z6e2- :
[V:4] D,2F,2E,4 | 
[V:1] A4- :
[V:2] A2e2 :
[V:3] e2e2 | 
[V:4] A,,4 :
[V:1] A2d2- [I:setbarnb 154]| 
[V:2] f2d2 | 
[V:3] d4 :
[V:4] D,4- | 
[V:1] d2c4BA | 
[V:2] f2e2z2e2- | 
[V:3] d2e2c4 | 
[V:4] D,2A,,2C,3D, | 
[V:1] G3AB2c2- | 
[V:2] e2dcB2A2- | 
[V:3] B6e2- :
[V:4] E,3F,G,2A,2 | 
[V:1] cAA2- :
[V:2] A2e2 :
[V:3] e2e2 | 
[V:4] A,,4 :
[V:1] A2d2- [I:setbarnb 157]| 
[V:2] f2d2 | 
[V:3] d4 :
[V:4] D,4- | 
[V:1] d2c4BA | 
[V:2] f2e2z2e2- | 
[V:3] d2e2c4 | 
[V:4] D,2A,,2C,3D, | 
[V:1] G3AB2c2- | 
[V:2] e2dcB2A2 | 
[V:3] B6e2- :
[V:4] E,3F,G,2A,2 | 
[V:1] cAA2- :
[V:2] c4 :
[V:3] e4 | 
[V:4] A,,4 :
[V:1] A2d2- [I:setbarnb 160]| 
[V:2] d4 | 
[V:3] f4- :
[V:4] D,4- | 
[V:1] d2c2B2A2- | 
[V:2] A2c2d2e2- | 
[V:3] f2e2d2c2 | 
[V:4] D,2A,,2B,,2C,2 | 
[V:1] A2^G^FG4 | 
[V:2] edf2e3d | 
[V:3] B6z2 :
[V:4] D,4E,4 | 
[V:1] A3G :
[V:2] cBc2- :
[V:3] x4 | 
[V:4] A,,4 :
[V:1] E2D2 [I:setbarnb 163]| 
[V:2] c2d2 | 
[V:3] [M:9/2]z4 :
[V:4] A,,2D,2- | 
[V:1] F4E2D2- | 
[V:2] A3Bc2F2 | 
[V:3] x2z6 :
[V:4] D,2D,2C,2B,,2- | 
[V:1] D2C2B,2- :
[V:2] G2A4 :
[V:3] z6 | 
[V:4] B,,2A,,2E,2- :
[V:1] B,2 [I:setbarnb 165]| 
[V:2] ^G2 | 
[V:3] E2- :
[V:4] E,2 | 
[V:1] A,B,CDE3F | 
[V:2] A2e4c2 | 
[V:3] E4E4- :
[V:4] A,,4z2E,2 | 
[V:1] G2A4^G2 | 
[V:2] B2A2B4 | 
[V:3] E2E6 | 
[V:4] E,2A,,2E,2E,2 | 
[V:1] A8 | 
[V:2] ABcde2d2- | 
[V:3] A6A2 :
[V:4] A,,2A,4F,2 | 
[V:1] z4A4 | 
[V:2] d2^c2d2A2 | 
[V:3] G4F4- :
[V:4] E,4D,4 | 
[V:1] A2 :
[V:2] c2- :
[V:3] F2 | 
[V:4] z2 :
[V:1] c4BA [I:setbarnb 170]| 
[V:2] cde4 | 
[V:3] E6 :
[V:4] A,,2C,3D, | 
[V:1] G6FE | 
[V:2] z2e4dc | 
[V:3] z6B2- :
[V:4] E,3F,G,4- | 
[V:1] D2E2 :
[V:2] B3c :
[V:3] B4 | 
[V:4] G,2F,E, :
[V:1] F2G2 [I:setbarnb 172]| 
[V:2] d2B2 | 
[V:3] B4- :
[V:4] D,2E,2- | 
[V:1] E2G4FE | 
[V:2] e6dc | 
[V:3] B2E6 :
[V:4] E,D,E,F,G,4- | 
[V:1] D2E2F2 :
[V:2] B3cd2 :
[V:3] z6 | 
[V:4] G,2F,E,D,2 :
[V:1] G2 [I:setbarnb 174]| 
[V:2] B2 | 
[V:3] B2- :
[V:4] E,2- | 
[V:1] E2G4FE | 
[V:2] e6dc | 
[V:3] B4B4- :
[V:4] E,D,E,F,G,4- | 
[V:1] D2E2F2G2 | 
[V:2] B3cd2B2 | 
[V:3] B2B6 | 
[V:4] G,2F,E,D,2E,2 | 
[V:1] E2A3GF2- | 
[V:2] e6d2 | 
[V:3] A6A2 :
[V:4] A,,3B,,C,2D,2 | 
[V:1] F2E2F2D2 | 
[V:2] B2c2A2d2 | 
[V:3] G4F4- :
[V:4] E,2C,2D,4 | 
[V:1] A2- :
[V:2] cA :
[V:3] F2 | 
[V:4] A,,2- :
[V:1] A2G3F [I:setbarnb 179]| 
[V:2] c3BG2 | 
[V:3] E6 :
[V:4] A,,B,,C,D,E,2 | 
[V:1] EDD4^C2 | 
[V:2] A2D2E4 | 
[V:3] z6z2 :
[V:4] C,2D,2A,,4 | 
[V:1] D4- :
[V:2] D4- :
[V:3] x4 | 
[V:4] D,4- :
[V:1] D4- :
[V:2] D4- :
[V:3] z4 :
[V:4] D,4- :
[V:1] D8 |]  
[V:2] D8 |]  
[V:3] x8 |]  
[V:4] D,8 |]  



